X: 21306
T: Kendal Lilt
R: jig
M: 6/8
K: Dmajor
|:[Ad]|F2 A d2 A|E2 A A2 g|f2 a afd|ecA A2 d|
F2 A d2 A|E2 A A2 g|f2 d gec|d3 [D2d2]:|
|:g|aba a2 f|aba g2 e|d2 f d2 f|ecA A2 d|
aba a2 f|gag g2 e|f2 d gec|d3 [D2d2]:|

